dist/img/ryan_r.svg

<?xml version="1.0" encoding="UTF-8"?>
<svg width="238px" height="238px" viewBox="0 0 238 238" version="1.1" xmlns="http://www.w3.org/2000/svg" xmlns:xlink="http://www.w3.org/1999/xlink">
    <!-- Generator: Sketch 41.2 (35397) - http://www.bohemiancoding.com/sketch -->
    <title>Artboard 2 Copy 3</title>
    <desc>Created with Sketch.</desc>
    <defs></defs>
    <g id="Page-1" stroke="none" stroke-width="1" fill="none" fill-rule="evenodd">
        <g id="Artboard-2-Copy-3" fill="#1E262D">
            <path d="M36.1008887,8.814415 C37.8148113,9.79379934 41.0589733,10.161063 45.8334719,9.91621688 C50.6079706,9.67137079 56.4841885,9.12047536 63.4623019,8.26351406 C70.4404154,7.40655277 78.1529514,6.42718312 86.6001413,5.32537573 C95.0473313,4.22356835 113.22702,2.20360375 113.22702,2.20360375 L131.590385,0.734534584 C131.590385,0.734534584 138.384813,0.306056689 141.690235,0.183633646 C144.995657,0.0612106032 148.239819,0 151.422818,0 C160.971816,0 169.847353,0.612106032 178.049697,1.83633646 C186.252041,3.06056689 193.413681,5.2641486 199.534834,8.44714771 C212.511676,15.3028381 219,24.6068498 219,36.3594619 C219,42.2357679 217.469735,48.5404601 214.409159,55.2737274 C211.348583,62.0069948 207.00263,68.9237929 201.37117,76.0243294 C195.494864,83.614558 188.884119,90.4701456 181.538736,96.5912977 C174.193354,102.71245 166.786871,108.098983 159.319065,112.751059 C151.851259,117.403134 144.505987,121.320613 137.283028,124.503612 C130.060068,127.686611 123.632955,130.135035 118.001495,131.848958 C118.980879,138.949494 121.857777,147.70261 126.632276,158.108569 C131.406775,168.514528 136.915729,178.491856 143.159304,188.040853 C149.402879,197.589851 155.768782,205.547229 162.257203,211.913227 C168.745625,218.279226 174.438211,220.850071 179.335132,219.62584 C182.273286,218.891302 184.048393,219.013723 184.660508,219.993108 C185.272623,220.972492 184.96657,222.441547 183.74234,224.400315 C182.762956,225.869392 181.17148,227.522078 178.967865,229.358424 C176.76425,231.194769 174.132194,232.847456 171.071618,234.316532 C168.011042,235.785609 164.583249,236.8874 160.788134,237.621938 C156.99302,238.356476 153.014331,238.478897 148.851947,237.989205 C144.93441,237.499513 140.710878,234.989878 136.181226,230.460226 C131.651573,225.930573 127.183199,220.176776 122.77597,213.198663 C118.36874,206.220549 114.145208,198.508013 110.105248,190.060823 C106.065288,181.613634 102.637494,173.350202 99.8217638,165.270281 C97.0060338,157.19036 94.8024521,149.783877 93.2109526,143.05061 C91.619453,136.317343 91.0685576,131.114442 91.5582498,127.44175 C91.5582498,126.21752 92.0479346,124.626044 93.0273189,122.667275 L92.2927843,120.463672 C86.6613244,132.950822 81.0911595,145.131732 75.5821226,157.006767 C70.0730856,168.881802 65.1762374,179.654869 60.8914309,189.326289 C56.6066244,198.997709 53.11762,207.13872 50.4243131,213.749564 C47.7310061,220.360408 46.3843729,224.522729 46.3843729,226.236652 C46.1395268,228.929959 44.4256299,230.215381 41.2426308,230.092958 C38.0596317,229.970535 34.6930485,228.807534 31.1427803,226.603919 C27.592512,224.400304 24.4707713,221.339774 21.7774643,217.422237 C19.0841574,213.504699 18.3496301,209.097536 19.5738606,204.200614 C20.0635527,201.996999 21.8386602,197.467415 24.8992363,190.611724 C27.9598124,183.756034 31.7548698,175.431392 36.2845223,165.637549 C40.8141749,155.843705 45.894655,145.13185 51.526115,133.501661 C57.1575749,121.871472 62.9113716,110.057825 68.7876777,98.0603669 C74.6639837,86.0629087 80.3565698,74.3104729 85.8656067,62.8027069 C91.3746437,51.2949409 96.2102813,41.0115595 100.372665,31.9522544 C88.1303605,35.8697918 77.0512413,39.1139537 67.1349749,41.6848376 C57.2187084,44.2557215 49.9346466,44.8066169 45.282571,43.3375404 C42.0995719,42.3581561 39.4675159,39.7873108 37.3863242,35.6249273 C35.3051325,31.4625438 33.836078,27.1778016 32.9791167,22.7705721 C32.1221554,18.3633426 31.9385236,14.6294958 32.4282158,11.5689197 C32.917908,8.50834362 34.14212,7.59018458 36.1008887,8.814415 Z M99.2708629,105.405713 C102.698708,105.650559 107.717978,104.487557 114.328822,101.916673 C120.939666,99.3457896 128.040096,95.9179958 135.630325,91.6331893 C143.220553,87.3483828 150.627036,82.4515345 157.849996,76.9424976 C165.072955,71.4334607 171.010384,65.8632958 175.66246,60.2318359 C180.069689,54.845222 183.864747,49.3974783 187.047746,43.8884414 C190.230745,38.3794044 191.82222,33.4213456 191.82222,29.014116 C191.82222,25.8311169 190.842851,23.1378504 188.884082,20.9342356 C186.925313,18.7306209 183.49752,17.1391452 178.600598,16.1597608 C173.703676,15.1803765 167.827458,15.2415871 160.971768,16.3433945 C154.116078,17.4452019 146.648384,18.9754669 138.568463,20.9342356 C137.099387,24.3620808 135.018226,28.9528761 132.324919,34.7067591 C129.631612,40.4606421 126.571082,47.0713872 123.143237,54.5391928 C119.715392,62.0069984 115.981545,70.0867981 111.941584,78.7788341 C107.901624,87.4708701 103.678092,96.3464076 99.2708629,105.405713 Z" id="Combined-Shape"></path>
        </g>
    </g>
</svg>

<svg width="238" height="238" viewBox="0 0 238 238" xmlns="http://www.w3.org/2000/svg"><title>Artboard 2 Copy 3</title><path d="M36.1 8.814c1.715.98 4.959 1.347 9.733 1.102 4.775-.245 10.651-.796 17.63-1.652 6.977-.857 14.69-1.837 23.137-2.939 8.447-1.101 26.627-3.121 26.627-3.121L131.59.734s6.795-.428 10.1-.55A263.01 263.01 0 0 1 151.423 0c9.549 0 18.424.612 26.627 1.836 8.202 1.225 15.364 3.428 21.485 6.611C212.512 15.303 219 24.607 219 36.36c0 5.877-1.53 12.181-4.59 18.915-3.061 6.733-7.407 13.65-13.039 20.75a131.384 131.384 0 0 1-19.832 20.567c-7.346 6.121-14.752 11.508-22.22 16.16-7.468 4.652-14.813 8.57-22.036 11.753-7.223 3.183-13.65 5.631-19.282 7.345.98 7.1 3.857 15.854 8.631 26.26a229.513 229.513 0 0 0 16.527 29.932c6.244 9.549 12.61 17.506 19.098 23.872 6.489 6.366 12.181 8.937 17.078 7.713 2.938-.735 4.713-.612 5.326.367.612.98.306 2.449-.919 4.407-.979 1.47-2.57 3.122-4.774 4.958-2.204 1.837-4.836 3.49-7.896 4.959-3.061 1.469-6.489 2.57-10.284 3.305-3.795.734-7.774.857-11.936.367-3.918-.49-8.141-3-12.67-7.529-4.53-4.53-8.999-10.283-13.406-17.261s-8.63-14.691-12.67-23.138c-4.04-8.447-7.469-16.71-10.284-24.79-2.816-8.08-5.02-15.487-6.611-22.22-1.592-6.734-2.142-11.937-1.653-15.61 0-1.223.49-2.815 1.47-4.774l-.735-2.203a3757.387 3757.387 0 0 1-16.71 36.543c-5.51 11.875-10.407 22.648-14.692 32.32-4.284 9.67-7.773 17.812-10.467 24.423-2.693 6.61-4.04 10.773-4.04 12.487-.244 2.693-1.958 3.978-5.141 3.856-3.183-.122-6.55-1.285-10.1-3.49-3.55-2.203-6.672-5.263-9.366-9.18-2.693-3.918-3.427-8.325-2.203-13.222.49-2.204 2.265-6.734 5.325-13.59 3.06-6.855 6.856-15.18 11.386-24.973 4.53-9.794 9.61-20.506 15.241-32.136A8733.65 8733.65 0 0 1 68.788 98.06a4369.563 4369.563 0 0 0 17.078-35.257c5.509-11.508 10.344-21.791 14.507-30.85-12.243 3.917-23.322 7.161-33.238 9.732-9.916 2.57-17.2 3.122-21.852 1.653-3.183-.98-5.815-3.55-7.897-7.713-2.08-4.162-3.55-8.447-4.407-12.854-.857-4.408-1.04-8.142-.55-11.202.489-3.06 1.713-3.979 3.672-2.755zm63.17 96.592c3.429.245 8.448-.918 15.059-3.49 6.61-2.57 13.711-5.998 21.301-10.283 7.59-4.285 14.997-9.181 22.22-14.69 7.223-5.51 13.16-11.08 17.812-16.711 4.408-5.387 8.203-10.835 11.386-16.344s4.774-10.467 4.774-14.874c0-3.183-.98-5.876-2.938-8.08-1.959-2.203-5.386-3.795-10.283-4.774-4.897-.98-10.774-.918-17.63.183-6.855 1.102-14.323 2.632-22.403 4.591-1.469 3.428-3.55 8.019-6.243 13.773a2964.25 2964.25 0 0 0-9.182 19.832 5637.847 5637.847 0 0 1-11.201 24.24 1667.258 1667.258 0 0 1-12.671 26.627z" fill="#1E262D" fill-rule="evenodd"/></svg>
